X:848
T:Padraig O'Keefe's 3
R:Slide
O:Ireland
S:Henrik Norbeck
Z:Transcription:Henrik Norbeck(?), chords:Mike Long
M:12/8
L:1/8
K:D
"D"f3 fed "G"g3 g2f|"A"eAc ecA "D"f3 f2e|\
"Bm"d3 dcd "G"efg e2d|[1 "A"cBc ABc "D"d2a "G"bag:|
[2 "A"cBc ABc "D"d2A "G"B2A\
|:"D"F2A AGF "G"G2B BAG|"A"cBc ABc "D"d2e f3|
"D"F2A AGF "G"G2B BAG|[1 "A"cBc ABc "D"d2A "G"BAG:|[2 "A"cBc ABc "D"d2a "G"bag|]
